X:39
T: Der Maedchenmoerder (Halewijn - Ulinger)
N: Q0041U
O: Mitteleuropa, Deutschland (BRD) , Nord - Baden
R: Ballade, Verfuehrung, Mord, Mordversuch bzw. Rache
M: 6/8
L: 1/16
K: G
GB | d2e2d2B2A2BB | d4c2A4
A2 | c2c2c2d2d2c2 | B6-B4
d2 | d3cB2B2c2d2 | e3fg2g2f2
e2 | d3BB2d3AA2 | c4d2B4
d2 | d3cB2B2c2d2 | e3fg2g2f2
e2 | d3BB2d3AA2 | c4d2B4

